X:1
T:Title
%%score { ( 1 3 ) | ( 2 4 ) }
L:1/8
M:4/4
K:Ab
V:1 treble nm="Grand Piano"
V:3 treble 
V:2 bass 
V:4 bass 
V:1
 z4 z2[Q:1/4=108] F_G | ABAB A2 F2 | D4 z4 | _GAGA G2 E2 | z2[K:bass] _G,2 G,2[K:treble] F_G | %5
 Adcd e2 d2 | EB=AB c2 B2 | CAGA B2 A2 | F4 z4 | Adcd e2 d2 | EB=AB c2 B2 | CAGA B2 C2 | %12
[M:3/4] D4 z2 |] %13
V:2
 z8 | D,2 [F,A,D]2 F,2 [A,D]2 | z2 F,2 F,2 z2 | A,,2 [E,A,]2 C,2 [_G,A,]2 | z2 E,2 E,2 z2 | %5
 D,2 [F,A,D]2 [F,A,D]4 | _G,,2 [_G,B,E]2 [G,CE]4 | A,,2 [E,A,]2 C,2 [_G,A,]2 | z2 F,2 F,2 z2 | %9
 D,2 [F,A,D]2 [F,A,_C]4 | _G,,2 [_G,B,E]2 [G,B,E]4 | A,,2 [E,A,]2 C,2 [_G,A,]2 | %12
[M:3/4] z2 F,2 F,2 |] %13
V:3
 x8 | x8 | z2 A,2 A,2 EF | x8 | C4[K:bass] z4[K:treble] | x8 | x8 | x8 | z2 A,2 A,2 F_G | x8 | x8 | %11
 x8 |[M:3/4] z2 A,2 A,2 |] %13
V:4
 x8 | x8 | F,,6 z2 | x8 | A,,6 z2 | x8 | x8 | x8 | D,6 z2 | x8 | x8 | x8 |[M:3/4] D,6 |] %13

